poi/svg/1003.svg

<?xml version="1.0" encoding="UTF-8" standalone="no"?>
<svg
   xmlns:dc="http://purl.org/dc/elements/1.1/"
   xmlns:cc="http://creativecommons.org/ns#"
   xmlns:rdf="http://www.w3.org/1999/02/22-rdf-syntax-ns#"
   xmlns:svg="http://www.w3.org/2000/svg"
   xmlns="http://www.w3.org/2000/svg"
   xmlns:sodipodi="http://sodipodi.sourceforge.net/DTD/sodipodi-0.dtd"
   xmlns:inkscape="http://www.inkscape.org/namespaces/inkscape"
   inkscape:version="1.0 (4035a4fb49, 2020-05-01)"
   sodipodi:docname="1003.svg"
   id="svg20"
   version="1.2"
   viewBox="0 0 42.519639 42.519639"
   height="14.999999mm"
   width="14.999999mm">
  <metadata
     id="metadata24">
    <rdf:RDF>
      <cc:Work
         rdf:about="">
        <dc:format>image/svg+xml</dc:format>
        <dc:type
           rdf:resource="http://purl.org/dc/dcmitype/StillImage" />
        <dc:title>Qt SVG Document</dc:title>
      </cc:Work>
    </rdf:RDF>
  </metadata>
  <sodipodi:namedview
     inkscape:current-layer="svg20"
     inkscape:window-maximized="1"
     inkscape:window-y="-9"
     inkscape:window-x="-9"
     inkscape:cy="7.0737585"
     inkscape:cx="28.346482"
     inkscape:zoom="18.047943"
     fit-margin-bottom="0"
     fit-margin-right="0"
     fit-margin-left="0"
     fit-margin-top="0"
     showgrid="false"
     id="namedview22"
     inkscape:window-height="1013"
     inkscape:window-width="1920"
     inkscape:pageshadow="2"
     inkscape:pageopacity="0"
     guidetolerance="10"
     gridtolerance="10"
     objecttolerance="10"
     borderopacity="1"
     bordercolor="#666666"
     pagecolor="#ffffff" />
  <title
     id="title2">Qt SVG Document</title>
  <desc
     id="desc4">Generated with Qt</desc>
  <defs
     id="defs6" />
  <g
     transform="translate(5.25984,5.25984)"
     id="g18"
     stroke-linejoin="bevel"
     stroke-linecap="square"
     fill-rule="evenodd"
     stroke-width="1"
     stroke="#000000"
     fill="none">
    <g
       id="g10"
       font-style="normal"
       font-weight="400"
       font-size="7.8px"
       font-family="'MS Shell Dlg 2'"
       stroke="none"
       fill-opacity="1"
       fill="#1f78b4">
      <path
         id="path8"
         d="M 37.2598,16 C 37.2598,27.7415 27.7415,37.2598 16,37.2598 4.25851,37.2598 -5.25984,27.7415 -5.25984,16 -5.25984,4.25851 4.25851,-5.25984 16,-5.25984 27.7415,-5.25984 37.2598,4.25851 37.2598,16"
         fill-rule="evenodd"
         vector-effect="non-scaling-stroke" />
    </g>
    <g
       id="g14"
       font-style="normal"
       font-weight="400"
       font-size="7.8px"
       font-family="'MS Shell Dlg 2'"
       transform="translate(15.4331,12.5984)"
       stroke="none"
       fill-opacity="0.94902"
       fill="#ffffff">
      <path
         id="path12"
         d="m 2.84668,-7.29102 c 0,-0.30794 -0.11198,-0.55289 -0.33594,-0.73486 l 0.41992,-0.86084 c 0.08399,-0.19596 0.22046,-0.32194 0.40943,-0.37793 0.18896,-0.05599 0.36743,-0.04199 0.5354,0.04199 0.16797,0.08399 0.29044,0.22046 0.36743,0.40943 0.07699,0.18896 0.06649,0.36743 -0.03149,0.5354 L 3.74951,-7.375 C 3.52555,-7.45898 3.2526,-7.41699 2.93066,-7.24902 H 2.88867 l -0.04199,-0.042 m -4.64014,7.87354 c 0.19597,0 0.44092,0.027994 0.73487,0.083984 0.083981,0.083984 0.174964,0.167969 0.272945,0.251953 0.097982,0.083983 0.174968,0.188963 0.230957,0.314943 L -2.78027,5.91553 -3.95605,5.05469 -1.79346,0.58252 m -4.43017,12.42968 -1.38575,2.7925 c -0.08398,0.168 -0.22045,0.2869 -0.40942,0.3569 -0.18896,0.07 -0.36743,0.063 -0.5354,-0.021 -0.16797,-0.084 -0.27995,-0.2204 -0.33594,-0.4094 -0.05599,-0.189 -0.04199,-0.3674 0.042,-0.5354 l 1.44873,-3.0864 1.17578,0.9028 M -6.34961,4.61377 c 0.028,0 0.04199,0.007 0.04199,0.021 0,0.01399 0.014,0.02099 0.04199,0.02099 l 3.94727,2.93945 h 0.77686 0.08398 L 1.6499,5.05469 C 1.84587,4.88672 2.08032,4.80973 2.35327,4.82373 c 0.27295,0.014 0.49341,0.13298 0.66138,0.35693 l 2.79248,3.31739 h 2.98144 c 0.27995,0 0.51441,0.09098 0.70337,0.27295 0.18897,0.18196 0.28345,0.40592 0.28345,0.67187 0,0.27995 -0.09448,0.51441 -0.28345,0.70333 -0.18896,0.189 -0.42342,0.2835 -0.70337,0.2835 h -10.98095 -0.08399 -0.5039 c -0.34994,0 -0.63688,-0.098 -0.86084,-0.294 L -7.9873,6.94434 C -8.15527,6.83236 -8.28825,6.67139 -8.38623,6.46143 c 0.02799,0 0.04899,-0.007 0.06299,-0.021 0.014,-0.014 0.04199,-0.021 0.08398,-0.021 C -7.4694,6.19548 -6.88151,5.72656 -6.47559,5.0127 L -6.34961,4.61377 M 0.558105,8.49805 H 3.2666 L 2.15381,7.1543 0.558105,8.49805 M -8.47021,5.66357 c -0.5739,0.16797 -1.1233,0.11548 -1.64819,-0.15747 -0.5249,-0.27295 -0.8783,-0.69637 -1.0603,-1.27026 -0.168,-0.57389 -0.1085,-1.12679 0.1785,-1.65869 0.2869,-0.5319 0.7173,-0.88184 1.29122,-1.04981 0.57389,-0.16796 1.11979,-0.10848 1.63769,0.17847 0.5179,0.28695 0.86084,0.71737 1.02881,1.29126 0.16797,0.57389 0.11548,1.11629 -0.15747,1.6272 -0.27295,0.5109 -0.69637,0.85734 -1.27026,1.0393 M 11.0142,11.1646 c 0.2519,0 0.4724,0.0909 0.6613,0.2729 0.189,0.182 0.2835,0.4059 0.2835,0.6719 0,0.2799 -0.0945,0.5144 -0.2835,0.7033 -0.1889,0.189 -0.4094,0.2835 -0.6613,0.2835 H 9.64941 l 0.98679,2.4985 c 0.14,0.4199 -0.007,0.7349 -0.4409,0.9449 -0.056,0.0279 -0.14,0.0419 -0.25194,0.0419 -0.13997,0 -0.26945,-0.0454 -0.38843,-0.1364 C 9.43595,16.3541 9.34847,16.2386 9.29248,16.0986 L 8.0957,13.0962 H -2.78027 l -3.27539,3.2544 c -0.13998,0.154 -0.30095,0.2309 -0.48291,0.2309 -0.19597,0 -0.36394,-0.0769 -0.50391,-0.2309 -0.13997,-0.14 -0.20996,-0.301 -0.20996,-0.4829 0,-0.182 0.06999,-0.35 0.20996,-0.5039 l 2.37256,-2.3516 c -0.12598,-0.056 -0.20296,-0.098 -0.23096,-0.126 L -11.5566,7.72119 c -0.238,-0.16797 -0.364,-0.38143 -0.378,-0.64038 -0.014,-0.25895 0.056,-0.50741 0.21,-0.74536 0.168,-0.22396 0.3814,-0.34994 0.6404,-0.37793 0.2589,-0.028 0.5004,0.04199 0.7243,0.20996 l 6.40385,4.99712 H 11.0142 M -5.63574,-1.18115 c 0.15397,-0.34994 0.40942,-0.81185 0.76636,-1.38574 0.35693,-0.5739 0.82934,-1.14779 1.41723,-1.72168 0.58789,-0.5739 1.30526,-1.0813 2.1521,-1.52222 0.846844,-0.44092 1.858155,-0.68937 3.03394,-0.74536 -0.68588,0.5179 -1.266768,1.0848 -1.74267906,1.70068 C -0.484701,-4.23958 -0.873128,-3.6307 -1.17407,-3.02881 c -0.30095,0.60189 -0.5389,1.16179 -0.71387,1.67969 -0.17497,0.517903 -0.30444,0.930826 -0.38843,1.238768 -0.27995,-0.335937 -0.56689,-0.608886 -0.86084,-0.818847 -0.16797,-0.111981 -0.33593,-0.237951 -0.5039,-0.377931 -0.26595,-0.02799 -0.51091,-0.04199 -0.73487,-0.04199 -0.23795,0 -0.46191,0.014 -0.67187,0.04199 -0.20996,0.028 -0.40593,0.06999 -0.58789,0.12598 m -2.05762,-1.55371 c -0.33594,-0.028 -0.65088,-0.042 -0.94482,-0.042 -0.25196,0 -0.49341,0.014 -0.72437,0.042 -0.23096,0.02799 -0.40242,0.08398 -0.5144,0.16797 0.22396,-0.33594 0.64388,-0.83985 1.25976,-1.51172 0.61589,-0.67188 1.41724,-1.30176 2.40406,-1.88965 0.98681,-0.58789 2.1486,-1.02531 3.48535,-1.31226 1.33675,-0.28694 2.851966,-0.22046 4.54565,0.19947 -1.287759,0.05598 -2.400552,0.32194 -3.33838,0.79785 -0.93782,0.47591 -1.72868,1.02881 -2.37256,1.65869 -0.64388,0.62988 -1.14428,1.25976 -1.50122,1.88965 -0.35693,0.62988 -0.60538,1.10579 -0.74536,1.42773 C -6.25163,-1.4471 -6.3881,-1.60457 -6.54907,-1.77954 -6.71004,-1.95451 -6.87451,-2.11198 -7.04248,-2.25195 -7.23844,-2.40592 -7.4554,-2.56689 -7.69336,-2.73486 M 3.74951,1.44336 C 3.2876,1.44336 2.88867,1.48535 2.55273,1.56934 2.69271,1.2474 2.85368,0.830973 3.03564,0.320068 3.21761,-0.190837 3.36808,-0.775228 3.48706,-1.43311 c 0.11898,-0.65787 0.17847,-1.37524 0.17847,-2.1521 0,-0.77685 -0.10498,-1.5782 -0.31494,-2.40405 0.89583,0.76986 1.55021,1.59221 1.96313,2.46704 0.41292,0.87484 0.67188,1.71818 0.77686,2.530032 C 6.19556,-0.180339 6.20256,0.565023 6.11157,1.2439 6.02059,1.92277 5.93311,2.43018 5.84912,2.76611 5.73714,2.62614 5.60417,2.47917 5.4502,2.3252 5.29622,2.17122 5.14225,2.01725 4.98828,1.86328 4.82031,1.72331 4.62435,1.58333 4.40039,1.44336 H 3.74951 m 2.58252,1.5957 C 6.41602,2.68913 6.507,2.15723 6.60498,1.44336 c 0.09798,-0.713868 0.09798,-1.5222174 0,-2.425049 C 6.507,-1.88452 6.23405,-2.81185 5.78613,-3.76367 5.33822,-4.71549 4.63135,-5.60433 3.66553,-6.43018 c 1.56771,0.68588 2.78898,1.55372 3.66382,2.60352 0.87483,1.0498 1.52221,2.11011 1.94213,3.180908 C 9.69141,0.425049 9.92936,1.41886 9.98535,2.33569 10.0413,3.25252 10.0693,3.9139 10.0693,4.31982 10.0133,4.17985 9.90487,4.02238 9.7439,3.84741 9.58293,3.67244 9.40446,3.51497 9.2085,3.375 8.98454,3.20703 8.72559,3.03206 8.43164,2.8501 8.15169,2.8221 7.87874,2.80811 7.61279,2.80811 c -0.48991,0 -0.91683,0.07698 -1.28076,0.23095 M -1.62549,0.183594 c 0.05599,-0.2799482 0.17147,-0.678874 0.34644,-1.196774 0.17496,-0.51791 0.419919,-1.0848 0.734861,-1.70069 0.314941,-0.61588 0.720865,-1.23877 1.217773,-1.86865 C 1.17049,-5.2124 1.79688,-5.7723 2.55273,-6.26221 c 0.25196,0.83985 0.38493,1.65869 0.39893,2.45655 0.014,0.79785 -0.04199,1.54321 -0.16797,2.23608 C 2.65771,-0.876709 2.50024,-0.274821 2.31128,0.236084 2.12231,0.746989 1.97184,1.13542 1.85986,1.40137 1.74788,1.26139 1.60441,1.11092 1.42944,0.949951 1.25448,0.788981 1.09701,0.638509 0.957031,0.498535 0.74707,0.358561 0.544108,0.211589 0.348145,0.0576172 h -0.734864 c -0.195963,0 -0.409424,0.0069987 -0.640381,0.0209961 -0.23096,0.0139974 -0.43042,0.0489907 -0.59839,0.1049807"
         fill-rule="evenodd"
         vector-effect="none" />
    </g>
    <g
       id="g16"
       font-style="normal"
       font-weight="400"
       font-size="7.8px"
       font-family="'MS Shell Dlg 2'"
       stroke="none"
       fill-opacity="1"
       fill="#1f78b4" />
  </g>
</svg>

<?xml version="1.0" encoding="UTF-8" standalone="no"?>
<svg width="11.2889mm" height="11.2889mm"
 viewBox="0 0 32 32"
 xmlns="http://www.w3.org/2000/svg" xmlns:xlink="http://www.w3.org/1999/xlink"  version="1.2" baseProfile="tiny">
<title>Qt SVG Document</title>
<desc>Generated with Qt</desc>
<defs>
</defs>
<g fill="none" stroke="black" stroke-width="1" fill-rule="evenodd" stroke-linecap="square" stroke-linejoin="bevel" >

<g fill="#1f78b4" fill-opacity="1" stroke="none" transform="matrix(1,0,0,1,0,0)"
font-family="MS Shell Dlg 2" font-size="7.8" font-weight="400" font-style="normal" 
>
<path vector-effect="non-scaling-stroke" fill-rule="evenodd" d="M37.2598,16 C37.2598,27.7415 27.7415,37.2598 16,37.2598 C4.25851,37.2598 -5.25984,27.7415 -5.25984,16 C-5.25984,4.25851 4.25851,-5.25984 16,-5.25984 C27.7415,-5.25984 37.2598,4.25851 37.2598,16 "/>
</g>

<g fill="#ffffff" fill-opacity="0.94902" stroke="none" transform="matrix(1,0,0,1,15.4331,12.5984)"
font-family="MS Shell Dlg 2" font-size="7.8" font-weight="400" font-style="normal" 
>
<path vector-effect="none" fill-rule="evenodd" d="M2.84668,-7.29102 C2.84668,-7.59896 2.7347,-7.84391 2.51074,-8.02588 L2.93066,-8.88672 C3.01465,-9.08268 3.15112,-9.20866 3.34009,-9.26465 C3.52905,-9.32064 3.70752,-9.30664 3.87549,-9.22266 C4.04346,-9.13867 4.16593,-9.0022 4.24292,-8.81323 C4.31991,-8.62427 4.30941,-8.4458 4.21143,-8.27783 L3.74951,-7.375 C3.52555,-7.45898 3.2526,-7.41699 2.93066,-7.24902 L2.88867,-7.24902 L2.84668,-7.29102 M-1.79346,0.58252 C-1.59749,0.58252 -1.35254,0.610514 -1.05859,0.666504 C-0.974609,0.750488 -0.883626,0.834473 -0.785645,0.918457 C-0.687663,1.00244 -0.610677,1.10742 -0.554688,1.2334 L-2.78027,5.91553 L-3.95605,5.05469 L-1.79346,0.58252 M-6.22363,13.0122 L-7.60938,15.8047 C-7.69336,15.9727 -7.82983,16.0916 -8.0188,16.1616 C-8.20776,16.2316 -8.38623,16.2246 -8.5542,16.1406 C-8.72217,16.0566 -8.83415,15.9202 -8.89014,15.7312 C-8.94613,15.5422 -8.93213,15.3638 -8.84814,15.1958 L-7.39941,12.1094 L-6.22363,13.0122 M-6.34961,4.61377 C-6.32161,4.61377 -6.30762,4.62077 -6.30762,4.63477 C-6.30762,4.64876 -6.29362,4.65576 -6.26563,4.65576 L-2.31836,7.59521 L-1.5415,7.59521 L-1.45752,7.59521 L1.6499,5.05469 C1.84587,4.88672 2.08032,4.80973 2.35327,4.82373 C2.62622,4.83773 2.84668,4.95671 3.01465,5.18066 L5.80713,8.49805 L8.78857,8.49805 C9.06852,8.49805 9.30298,8.58903 9.49194,8.771 C9.68091,8.95296 9.77539,9.17692 9.77539,9.44287 C9.77539,9.72282 9.68091,9.95728 9.49194,10.1462 C9.30298,10.3352 9.06852,10.4297 8.78857,10.4297 L-2.19238,10.4297 L-2.27637,10.4297 L-2.78027,10.4297 C-3.13021,10.4297 -3.41715,10.3317 -3.64111,10.1357 L-7.9873,6.94434 C-8.15527,6.83236 -8.28825,6.67139 -8.38623,6.46143 C-8.35824,6.46143 -8.33724,6.45443 -8.32324,6.44043 C-8.30924,6.42643 -8.28125,6.41943 -8.23926,6.41943 C-7.4694,6.19548 -6.88151,5.72656 -6.47559,5.0127 L-6.34961,4.61377 M0.558105,8.49805 L3.2666,8.49805 L2.15381,7.1543 L0.558105,8.49805 M-8.47021,5.66357 C-9.04411,5.83154 -9.59351,5.77905 -10.1184,5.5061 C-10.6433,5.23315 -10.9967,4.80973 -11.1787,4.23584 C-11.3467,3.66195 -11.2872,3.10905 -11.0002,2.57715 C-10.7133,2.04525 -10.2829,1.69531 -9.70898,1.52734 C-9.13509,1.35938 -8.58919,1.41886 -8.07129,1.70581 C-7.55339,1.99276 -7.21045,2.42318 -7.04248,2.99707 C-6.87451,3.57096 -6.927,4.11336 -7.19995,4.62427 C-7.4729,5.13517 -7.89632,5.48161 -8.47021,5.66357 M11.0142,11.1646 C11.2661,11.1646 11.4866,11.2555 11.6755,11.4375 C11.8645,11.6195 11.959,11.8434 11.959,12.1094 C11.959,12.3893 11.8645,12.6238 11.6755,12.8127 C11.4866,13.0017 11.2661,13.0962 11.0142,13.0962 L9.64941,13.0962 L10.6362,15.5947 C10.7762,16.0146 10.6292,16.3296 10.1953,16.5396 C10.1393,16.5675 10.0553,16.5815 9.94336,16.5815 C9.80339,16.5815 9.67391,16.5361 9.55493,16.4451 C9.43595,16.3541 9.34847,16.2386 9.29248,16.0986 L8.0957,13.0962 L-2.78027,13.0962 L-6.05566,16.3506 C-6.19564,16.5046 -6.35661,16.5815 -6.53857,16.5815 C-6.73454,16.5815 -6.90251,16.5046 -7.04248,16.3506 C-7.18245,16.2106 -7.25244,16.0496 -7.25244,15.8677 C-7.25244,15.6857 -7.18245,15.5177 -7.04248,15.3638 L-4.66992,13.0122 C-4.7959,12.9562 -4.87288,12.9142 -4.90088,12.8862 L-11.5566,7.72119 C-11.7946,7.55322 -11.9206,7.33976 -11.9346,7.08081 C-11.9486,6.82186 -11.8786,6.5734 -11.7246,6.33545 C-11.5566,6.11149 -11.3432,5.98551 -11.0842,5.95752 C-10.8253,5.92952 -10.5838,5.99951 -10.3599,6.16748 L-3.95605,11.1646 L11.0142,11.1646 M-5.63574,-1.18115 C-5.48177,-1.53109 -5.22632,-1.993 -4.86938,-2.56689 C-4.51245,-3.14079 -4.04004,-3.71468 -3.45215,-4.28857 C-2.86426,-4.86247 -2.14689,-5.36987 -1.30005,-5.81079 C-0.453206,-6.25171 0.558105,-6.50016 1.73389,-6.55615 C1.04801,-6.03825 0.467122,-5.47135 -0.00878906,-4.85547 C-0.484701,-4.23958 -0.873128,-3.6307 -1.17407,-3.02881 C-1.47502,-2.42692 -1.71297,-1.86702 -1.88794,-1.34912 C-2.06291,-0.831217 -2.19238,-0.418294 -2.27637,-0.110352 C-2.55632,-0.446289 -2.84326,-0.719238 -3.13721,-0.929199 C-3.30518,-1.04118 -3.47314,-1.16715 -3.64111,-1.30713 C-3.90706,-1.33512 -4.15202,-1.34912 -4.37598,-1.34912 C-4.61393,-1.34912 -4.83789,-1.33512 -5.04785,-1.30713 C-5.25781,-1.27913 -5.45378,-1.23714 -5.63574,-1.18115 M-7.69336,-2.73486 C-8.0293,-2.76286 -8.34424,-2.77686 -8.63818,-2.77686 C-8.89014,-2.77686 -9.13159,-2.76286 -9.36255,-2.73486 C-9.59351,-2.70687 -9.76497,-2.65088 -9.87695,-2.56689 C-9.65299,-2.90283 -9.23307,-3.40674 -8.61719,-4.07861 C-8.0013,-4.75049 -7.19995,-5.38037 -6.21313,-5.96826 C-5.22632,-6.55615 -4.06453,-6.99357 -2.72778,-7.28052 C-1.39103,-7.56746 0.124186,-7.50098 1.81787,-7.08105 C0.530111,-7.02507 -0.582682,-6.75911 -1.52051,-6.2832 C-2.45833,-5.80729 -3.24919,-5.25439 -3.89307,-4.62451 C-4.53695,-3.99463 -5.03735,-3.36475 -5.39429,-2.73486 C-5.75122,-2.10498 -5.99967,-1.62907 -6.13965,-1.30713 C-6.25163,-1.4471 -6.3881,-1.60457 -6.54907,-1.77954 C-6.71004,-1.95451 -6.87451,-2.11198 -7.04248,-2.25195 C-7.23844,-2.40592 -7.4554,-2.56689 -7.69336,-2.73486 M3.74951,1.44336 C3.2876,1.44336 2.88867,1.48535 2.55273,1.56934 C2.69271,1.2474 2.85368,0.830973 3.03564,0.320068 C3.21761,-0.190837 3.36808,-0.775228 3.48706,-1.43311 C3.60604,-2.09098 3.66553,-2.80835 3.66553,-3.58521 C3.66553,-4.36206 3.56055,-5.16341 3.35059,-5.98926 C4.24642,-5.2194 4.9008,-4.39705 5.31372,-3.52222 C5.72664,-2.64738 5.9856,-1.80404 6.09058,-0.992188 C6.19556,-0.180339 6.20256,0.565023 6.11157,1.2439 C6.02059,1.92277 5.93311,2.43018 5.84912,2.76611 C5.73714,2.62614 5.60417,2.47917 5.4502,2.3252 C5.29622,2.17122 5.14225,2.01725 4.98828,1.86328 C4.82031,1.72331 4.62435,1.58333 4.40039,1.44336 L3.74951,1.44336 M6.33203,3.03906 C6.41602,2.68913 6.507,2.15723 6.60498,1.44336 C6.70296,0.729492 6.70296,-0.0788574 6.60498,-0.981689 C6.507,-1.88452 6.23405,-2.81185 5.78613,-3.76367 C5.33822,-4.71549 4.63135,-5.60433 3.66553,-6.43018 C5.23324,-5.7443 6.45451,-4.87646 7.32935,-3.82666 C8.20418,-2.77686 8.85156,-1.71655 9.27148,-0.645752 C9.69141,0.425049 9.92936,1.41886 9.98535,2.33569 C10.0413,3.25252 10.0693,3.9139 10.0693,4.31982 C10.0133,4.17985 9.90487,4.02238 9.7439,3.84741 C9.58293,3.67244 9.40446,3.51497 9.2085,3.375 C8.98454,3.20703 8.72559,3.03206 8.43164,2.8501 C8.15169,2.8221 7.87874,2.80811 7.61279,2.80811 C7.12288,2.80811 6.69596,2.88509 6.33203,3.03906 M-1.62549,0.183594 C-1.5695,-0.0963542 -1.45402,-0.49528 -1.27905,-1.01318 C-1.10409,-1.53109 -0.859131,-2.09798 -0.544189,-2.71387 C-0.229248,-3.32975 0.176676,-3.95264 0.673584,-4.58252 C1.17049,-5.2124 1.79688,-5.7723 2.55273,-6.26221 C2.80469,-5.42236 2.93766,-4.60352 2.95166,-3.80566 C2.96566,-3.00781 2.90967,-2.26245 2.78369,-1.56958 C2.65771,-0.876709 2.50024,-0.274821 2.31128,0.236084 C2.12231,0.746989 1.97184,1.13542 1.85986,1.40137 C1.74788,1.26139 1.60441,1.11092 1.42944,0.949951 C1.25448,0.788981 1.09701,0.638509 0.957031,0.498535 C0.74707,0.358561 0.544108,0.211589 0.348145,0.0576172 L-0.386719,0.0576172 C-0.582682,0.0576172 -0.796143,0.0646159 -1.0271,0.0786133 C-1.25806,0.0926107 -1.45752,0.127604 -1.62549,0.183594 "/>
</g>

<g fill="#1f78b4" fill-opacity="1" stroke="none" transform="matrix(1,0,0,1,0,0)"
font-family="MS Shell Dlg 2" font-size="7.8" font-weight="400" font-style="normal" 
>
</g>
</g>
</svg>
